img/recevez/2.svg

<svg width="161" height="160" viewBox="0 0 161 160" fill="none" xmlns="http://www.w3.org/2000/svg">
<g id="bi:clipboard-data">
<g id="Group">
<path id="Vector" d="M40.4043 97.6315C40.4043 95.2385 41.3549 92.9435 43.0471 91.2513C44.7392 89.5592 47.0342 88.6086 49.4273 88.6086C51.8203 88.6086 54.1154 89.5592 55.8075 91.2513C57.4996 92.9435 58.4503 95.2385 58.4503 97.6315V106.655C58.4503 109.048 57.4996 111.343 55.8075 113.035C54.1154 114.727 51.8203 115.678 49.4273 115.678C47.0342 115.678 44.7392 114.727 43.0471 113.035C41.3549 111.343 40.4043 109.048 40.4043 106.655V97.6315ZM94.5422 61.5396C94.5422 59.1465 95.4929 56.8515 97.185 55.1594C98.8771 53.4672 101.172 52.5166 103.565 52.5166C105.958 52.5166 108.253 53.4672 109.945 55.1594C111.638 56.8515 112.588 59.1465 112.588 61.5396V106.655C112.588 109.048 111.638 111.343 109.945 113.035C108.253 114.727 105.958 115.678 103.565 115.678C101.172 115.678 98.8771 114.727 97.185 113.035C95.4929 111.343 94.5422 109.048 94.5422 106.655V61.5396ZM67.4733 79.5856C67.4733 77.1925 68.4239 74.8975 70.116 73.2054C71.8082 71.5132 74.1032 70.5626 76.4963 70.5626C78.8893 70.5626 81.1843 71.5132 82.8765 73.2054C84.5686 74.8975 85.5192 77.1925 85.5192 79.5856V106.655C85.5192 109.048 84.5686 111.343 82.8765 113.035C81.1843 114.727 78.8893 115.678 76.4963 115.678C74.1032 115.678 71.8082 114.727 70.116 113.035C68.4239 111.343 67.4733 109.048 67.4733 106.655V79.5856Z" fill="#13023E"/>
<path id="Vector_2" d="M41.1429 20V19H40.1429H30.4286C25.0285 19 19.8389 21.025 16.004 24.646C12.1671 28.2688 10 33.1951 10 38.3448V134.655C10 139.805 12.1671 144.731 16.004 148.354C19.8389 151.975 25.0285 154 30.4286 154H127.571C132.971 154 138.161 151.975 141.996 148.354C145.833 144.731 148 139.805 148 134.655V38.3448C148 33.1951 145.833 28.2688 141.996 24.646C138.161 21.025 132.971 19 127.571 19H117.857H116.857V20V29.1724V30.1724H117.857H127.571C129.901 30.1724 132.124 31.0466 133.754 32.586C135.382 34.1237 136.286 36.1965 136.286 38.3448V134.655C136.286 136.804 135.382 138.876 133.754 140.414C132.124 141.953 129.901 142.828 127.571 142.828H30.4286C28.0995 142.828 25.8765 141.953 24.2461 140.414C22.6176 138.876 21.7143 136.804 21.7143 134.655V38.3448C21.7143 36.1965 22.6176 34.1237 24.2461 32.586C25.8765 31.0466 28.0995 30.1724 30.4286 30.1724H40.1429H41.1429V29.1724V20Z" fill="#13023E" stroke="#13023E" stroke-width="2"/>
<path id="Vector_3" d="M89.983 14.3351C91.0073 14.3351 91.9898 14.7354 92.7141 15.4479C93.4385 16.1603 93.8454 17.1267 93.8454 18.1343V25.7326C93.8454 26.7402 93.4385 27.7065 92.7141 28.419C91.9898 29.1315 91.0073 29.5317 89.983 29.5317H66.8081C65.7837 29.5317 64.8013 29.1315 64.0769 28.419C63.3526 27.7065 62.9456 26.7402 62.9456 25.7326V18.1343C62.9456 17.1267 63.3526 16.1603 64.0769 15.4479C64.8013 14.7354 65.7837 14.3351 66.8081 14.3351H89.983ZM66.8081 6.73682C63.7349 6.73682 60.7876 7.93762 58.6146 10.0751C56.4415 12.2125 55.2207 15.1115 55.2207 18.1343V25.7326C55.2207 28.7554 56.4415 31.6544 58.6146 33.7918C60.7876 35.9292 63.7349 37.13 66.8081 37.13H89.983C93.0561 37.13 96.0034 35.9292 98.1765 33.7918C100.35 31.6544 101.57 28.7554 101.57 25.7326V18.1343C101.57 15.1115 100.35 12.2125 98.1765 10.0751C96.0034 7.93762 93.0561 6.73682 89.983 6.73682L66.8081 6.73682Z" fill="#13023E"/>
</g>
</g>
</svg>

<svg width="161" height="160" viewBox="0 0 161 160" fill="none" xmlns="http://www.w3.org/2000/svg"><g id="bi:clipboard-data"><g id="Group" fill="#13023E"><path id="Vector" d="M40.404 97.632a9.023 9.023 0 0118.046 0v9.023a9.023 9.023 0 01-18.046 0v-9.023zM94.542 61.54a9.023 9.023 0 0118.046 0v45.115a9.023 9.023 0 01-18.046 0V61.54zM67.473 79.586a9.023 9.023 0 1118.046 0v27.069a9.022 9.022 0 11-18.046 0v-27.07z"/><path id="Vector_2" d="M41.143 20v-1H30.429c-5.4 0-10.59 2.025-14.425 5.646C12.167 28.269 10 33.196 10 38.345v96.31c0 5.15 2.167 10.076 6.004 13.699 3.835 3.621 9.024 5.646 14.425 5.646h97.142c5.4 0 10.59-2.025 14.425-5.646 3.837-3.623 6.004-8.549 6.004-13.699v-96.31c0-5.15-2.167-10.076-6.004-13.699-3.835-3.621-9.025-5.646-14.425-5.646h-10.714v11.172h10.714c2.33 0 4.553.875 6.183 2.414 1.628 1.538 2.532 3.61 2.532 5.759v96.31c0 2.149-.904 4.221-2.532 5.759-1.63 1.539-3.853 2.414-6.183 2.414H30.429c-2.33 0-4.552-.875-6.183-2.414-1.628-1.538-2.532-3.61-2.532-5.759v-96.31c0-2.148.904-4.221 2.532-5.759 1.63-1.54 3.854-2.414 6.183-2.414h10.714V20z" stroke="#13023E" stroke-width="2"/><path id="Vector_3" d="M89.983 14.335c1.024 0 2.007.4 2.731 1.113a3.768 3.768 0 011.131 2.686v7.599a3.768 3.768 0 01-1.13 2.686 3.895 3.895 0 01-2.732 1.113H66.808c-1.024 0-2.007-.4-2.731-1.113a3.768 3.768 0 01-1.131-2.686v-7.599c0-1.007.407-1.974 1.13-2.686a3.895 3.895 0 012.732-1.113h23.175zM66.808 6.737c-3.073 0-6.02 1.2-8.193 3.338a11.303 11.303 0 00-3.394 8.06v7.598c0 3.022 1.22 5.921 3.394 8.059a11.686 11.686 0 008.193 3.338h23.175c3.073 0 6.02-1.2 8.194-3.338a11.301 11.301 0 003.393-8.06v-7.598c0-3.023-1.22-5.921-3.393-8.059a11.686 11.686 0 00-8.194-3.338H66.808z"/></g></g></svg>
